X: 1122
T: Will You Come Down to Limerick?
R:slip jig
N:"Collected by F. O'Neill"
B:O'Neill's 1122
Z:Transcribed by Michael Hogan
M:9/8
L:1/8
K:G
[G3B3] AGF G2A | BAB GBd cBA | [G3B3] AGF G2A |
[1 cde fed cAF:|2 cde fed cAd||
cAG G2D G3 | cAG GFG Add | cAG G2D G3 | cde fed cAd :||
d>gg gaf g2g | (d<g)g a2g fed | cde fed f2d | cde fed cAF |
d>gg gaf g2g | (d<g)g a2g fga | bgb afa g2d | cde fed cAF ||


